src/lib/packages/icons/src/assets/line/euro.svg

<svg width="24" height="24" viewBox="0 0 24 24" fill="none" xmlns="http://www.w3.org/2000/svg">
<path d="M19.696 19.14C19.851 19.524 19.664 19.961 19.28 20.116C18.234 20.537 17.131 20.75 16 20.75C12.137 20.75 8.85601 18.23 7.69901 14.75H5C4.586 14.75 4.25 14.414 4.25 14C4.25 13.586 4.586 13.25 5 13.25H7.35001C7.29101 12.841 7.25 12.426 7.25 12C7.25 11.574 7.29101 11.159 7.35001 10.75H5C4.586 10.75 4.25 10.414 4.25 10C4.25 9.586 4.586 9.25 5 9.25H7.69901C8.85501 5.77 12.136 3.25 16 3.25C17.142 3.25 18.247 3.468 19.286 3.896C19.669 4.054 19.851 4.493 19.693 4.875C19.535 5.258 19.098 5.44098 18.714 5.28198C17.858 4.92798 16.944 4.74902 16 4.74902C12.976 4.74902 10.381 6.61202 9.295 9.24902H15C15.414 9.24902 15.75 9.58502 15.75 9.99902C15.75 10.413 15.414 10.749 15 10.749H8.866C8.795 11.156 8.75 11.572 8.75 11.999C8.75 12.426 8.794 12.842 8.866 13.249H15C15.414 13.249 15.75 13.585 15.75 13.999C15.75 14.413 15.414 14.749 15 14.749H9.295C10.381 17.386 12.976 19.249 16 19.249C16.938 19.249 17.853 19.072 18.72 18.723C19.104 18.569 19.541 18.756 19.696 19.14Z" fill="currentColor"/>
</svg>

<svg xmlns="http://www.w3.org/2000/svg" width="24" height="24" fill="none"><path fill="currentColor" d="M19.696 19.14a.75.75 0 0 1-.416.976 8.742 8.742 0 0 1-3.28.634c-3.863 0-7.144-2.52-8.301-6H5a.75.75 0 0 1 0-1.5h2.35a8.723 8.723 0 0 1-.1-1.25c0-.426.041-.841.1-1.25H5a.75.75 0 0 1 0-1.5h2.699c1.156-3.48 4.437-6 8.301-6 1.142 0 2.247.218 3.286.646a.75.75 0 0 1-.572 1.386A7.067 7.067 0 0 0 16 4.749c-3.024 0-5.619 1.863-6.705 4.5H15a.75.75 0 0 1 0 1.5H8.866a7.254 7.254 0 0 0-.116 1.25c0 .427.044.843.116 1.25H15a.75.75 0 0 1 0 1.5H9.295c1.086 2.637 3.681 4.5 6.705 4.5a7.25 7.25 0 0 0 2.72-.526.752.752 0 0 1 .976.417Z"/></svg>
